X:037
T:Canal in October
M:4/4
L:1/8
K:G
B3 B cBAG | B3 B cBAG | EFGB A3 G | FGEF D2-D2 |
B3 B cBAG | B3 B cBAG | EFGB A3 G | G2-G2-G2-G2 |
B3 B cBAG | B3 B cBAG | EFGB A3 G | FGEF D2-D2 |
B3 B cBAG | B3 B cBAG | EFGB A3 G | G2D2G,4 ||
d3 d cBAG | d3 d cBAG | EFGB A3 G | FGEF D2-D2 |
d3 d cBAG | d3 d cBAG | EFGB A3 G | G2-G2-G2-G2 |
d3 d cBAG | d3 d cBAG | EFGB A3 G | FGEF D2-D2 |
d3 d cBAG | d3 d cBAG | EFGB A3 G | G2D2G,4 ||
